images/logo-parceiro.svg

<svg width="160" height="160" viewBox="0 0 160 160" fill="none" xmlns="http://www.w3.org/2000/svg">
<circle cx="80" cy="80" r="80" fill="#FAFAFA"/>
<path d="M49.1589 94V67.216H44.8029V94H49.1589ZM52.722 85.072C52.722 90.616 56.718 94.432 62.226 94.432C67.734 94.432 71.73 90.616 71.73 85.072C71.73 79.528 67.734 75.712 62.226 75.712C56.718 75.712 52.722 79.528 52.722 85.072ZM57.114 85.072C57.114 81.832 59.202 79.636 62.226 79.636C65.25 79.636 67.338 81.832 67.338 85.072C67.338 88.312 65.25 90.508 62.226 90.508C59.202 90.508 57.114 88.312 57.114 85.072ZM74.2034 84.712C74.2034 89.86 77.5154 93.64 82.5554 93.64C85.1114 93.64 87.3074 92.596 88.4234 90.94V93.892C88.4234 96.844 86.4794 98.752 83.4554 98.752C80.7554 98.752 78.9914 97.384 78.7034 95.08H74.3114C74.8514 99.832 78.3434 102.748 83.4554 102.748C89.2154 102.748 92.7794 99.04 92.7794 93.1V76.216H88.7114L88.4594 78.664C87.4154 76.756 85.3274 75.64 82.6634 75.64C77.5874 75.64 74.2034 79.528 74.2034 84.712ZM78.6314 84.604C78.6314 81.688 80.5034 79.492 83.4194 79.492C86.4794 79.492 88.3154 81.58 88.3154 84.604C88.3154 87.7 86.4434 89.824 83.4194 89.824C80.5394 89.824 78.6314 87.592 78.6314 84.604ZM96.2806 85.072C96.2806 90.616 100.277 94.432 105.785 94.432C111.293 94.432 115.289 90.616 115.289 85.072C115.289 79.528 111.293 75.712 105.785 75.712C100.277 75.712 96.2806 79.528 96.2806 85.072ZM100.673 85.072C100.673 81.832 102.761 79.636 105.785 79.636C108.809 79.636 110.897 81.832 110.897 85.072C110.897 88.312 108.809 90.508 105.785 90.508C102.761 90.508 100.673 88.312 100.673 85.072Z" fill="#EEEEEE"/>
</svg>

<svg width="160" height="160" fill="none" xmlns="http://www.w3.org/2000/svg"><circle cx="80" cy="80" r="80" fill="#FAFAFA"/><path d="M49.159 94V67.216h-4.356V94h4.356Zm3.563-8.928c0 5.544 3.996 9.36 9.504 9.36 5.508 0 9.504-3.816 9.504-9.36s-3.996-9.36-9.504-9.36c-5.508 0-9.504 3.816-9.504 9.36Zm4.392 0c0-3.24 2.088-5.436 5.112-5.436s5.112 2.196 5.112 5.436c0 3.24-2.088 5.436-5.112 5.436s-5.112-2.196-5.112-5.436Zm17.09-.36c0 5.148 3.311 8.928 8.351 8.928 2.556 0 4.752-1.044 5.868-2.7v2.952c0 2.952-1.944 4.86-4.968 4.86-2.7 0-4.464-1.368-4.752-3.672h-4.392c.54 4.752 4.032 7.668 9.144 7.668 5.76 0 9.324-3.708 9.324-9.648V76.216h-4.068l-.252 2.448c-1.044-1.908-3.132-3.024-5.796-3.024-5.076 0-8.46 3.888-8.46 9.072Zm4.427-.108c0-2.916 1.872-5.112 4.788-5.112 3.06 0 4.896 2.088 4.896 5.112 0 3.096-1.872 5.22-4.896 5.22-2.88 0-4.788-2.232-4.788-5.22Zm17.65.468c0 5.544 3.996 9.36 9.504 9.36 5.508 0 9.504-3.816 9.504-9.36s-3.996-9.36-9.504-9.36c-5.508 0-9.504 3.816-9.504 9.36Zm4.392 0c0-3.24 2.088-5.436 5.112-5.436s5.112 2.196 5.112 5.436c0 3.24-2.088 5.436-5.112 5.436s-5.112-2.196-5.112-5.436Z" fill="#EEE"/></svg>
